icons/map-filled.svg

<svg width="24" height="24" viewBox="0 0 24 24" fill="none" xmlns="http://www.w3.org/2000/svg">
<path d="M15 5.36505V19.973C14.7699 19.9494 14.5415 19.9117 14.316 19.86L9 18.606V4.00905C9.28 4.03505 9.614 4.09805 10 4.19705L14.95 5.37905L15 5.36505ZM17 4.79105L19.469 4.08205C19.7712 3.99424 20.0893 3.97579 20.3995 4.02809C20.7098 4.08038 21.0043 4.20206 21.261 4.38405C21.731 4.72405 22 5.23505 22 5.78405V17.122C22 17.905 21.452 18.589 20.636 18.824L17 19.736V4.79105ZM7 19.19L4.531 19.911C4.34104 19.9651 4.14451 19.9927 3.947 19.993C3.514 19.993 3.087 19.861 2.739 19.608C2.269 19.268 2 18.758 2 18.208V7.08205C2 6.29705 2.548 5.61305 3.365 5.37905L7 4.32805V19.19Z" fill="#3A3A47"/>
</svg>

<svg xmlns="http://www.w3.org/2000/svg" width="24" height="24" viewBox="0 0 24 24">
    <path fill="#3A3A47" fill-rule="evenodd" d="M6.999 4.327V19.19l-2.468.722c-.128.037-.258.06-.388.073l-.196.009c-.433 0-.86-.132-1.208-.385a1.735 1.735 0 0 1-.731-1.236L2 18.209V7.082c0-.736.482-1.383 1.215-1.654l.15-.049 3.634-1.052zm2-.319c.225.022.485.067.78.135l.221.054 4.95 1.182.05-.014v14.608a5.302 5.302 0 0 1-.447-.064l-.237-.05L9 18.607l-.001-.001V4.008zm12.262.376c.423.306.683.75.731 1.237l.008.164v11.337c0 .734-.482 1.38-1.214 1.653l-.15.05-3.636.911V4.79l2.469-.708a2.09 2.09 0 0 1 1.792.302z"/>
</svg>
